svgs/sharp-solid/meter.svg

<svg xmlns="http://www.w3.org/2000/svg" viewBox="0 0 512 512"><!--! Font Awesome Pro 6.6.0 by @fontawesome - https://fontawesome.com License - https://fontawesome.com/license (Commercial License) Copyright 2024 Fonticons, Inc. --><path d="M256 512A256 256 0 1 0 256 0a256 256 0 1 0 0 512zM192 160l0 32 0 32-64 0 0-32 0-32 0-32 64 0 0 32zm96 0l0 32 0 32-64 0 0-32 0-32 0-32 64 0 0 32zm96 0l0 32 0 32-64 0 0-32 0-32 0-32 64 0 0 32z"/></svg>

<svg xmlns="http://www.w3.org/2000/svg" viewBox="0 0 512 512"><!--! Font Awesome Pro 6.4.0 by @fontawesome - https://fontawesome.com License - https://fontawesome.com/license (Commercial License) Copyright 2023 Fonticons, Inc. --><path d="M256 512A256 256 0 1 0 256 0a256 256 0 1 0 0 512zM192 160v32 32H128V192 160 128h64v32zm96 0v32 32H224V192 160 128h64v32zm96 0v32 32H320V192 160 128h64v32z"/></svg>
